**kern	**kern
*staff2	*staff1
=1-	=1-
*clefF4	*clefG2
*k[f#]	*k[f#]
*G:	*G:
*M4/4	*M4/4
8GG\L	[1b
8D\	.
8d\	.
8D\J	.
8GG\L	.
8D\	.
8d\	.
8D\J	.
=2	=2
8GG\L	8b\L]
8D\	8dd\
8e\	8a\
8D\J	8b\J
8GG\L	4.g/
8D\	.
8B\	.
8D\J	8e/
=3	=3
8GG\L	8d/L
8D\	8g/
8B\	8b/
8D\J	8dd/J
8GG\L	4.gg\
8D\	.
8d\	.
8D\J	8ff#\
=4	=4
8r	[2ffn\
8C\L	.
8Fn\	.
8c\J	.
4a\	8ff\L]
.	8aa\
4g\	8ee\
.	8ff\J
=5	=5
!!linebreak:original
*	*^
8BB\L	2.dd/	4g\
8Fn\	.	.
8d\	.	4fn\
8F\J	.	.
8BB\L	.	4g\
8F\	.	.
8d\	[4gg/	[4f\
8F\J	.	.
=6	=6	=6
8D\L	8gg/L]	4f\]
8Fn\	8ffn/	.
8e\	8cc/	2g\
8F\J	8dd/J	.
8D\L	4.b/	.
8F\J	.	.
[4d\	.	4fn\
.	8a/	.
*	*v	*v
=7	=7
8d\L]	4g/
8c\	.
8d\	8b-\L
8e-\J	8ee-\J
4f#\	8ff#\L
.	8b-\
4g\	8ff#\ 8gg\
.	8b-\J
=8	=8
*	*^
4.a\	4.aa/	8ff#\L
.	.	8b-\
.	.	8ff#\
8g\	8gg/	8b-\J
8a\L	8aa/L	2r
8b-\	8bb-/	.
8cc\	8ccc/	.
8dd\J	8bb-/J	.
*	*v	*v
=9	=9
!!linebreak:original
*	*^
4BB/	2gg/	8gg\L
.	.	8ee\
4BB/	.	8g\
.	.	8ee\J
4BB/	2ffn/	8ff\L
.	.	8dd\
[4BB/	.	8fn\
.	.	[8dd\J
=10	=10	=10
8BB/L]	2ee/	8dd\L]
8D/	.	8cc\
8AA/	.	8e\
8BB/J	.	8cc\J
4.GG/	8ee-/L	2r
.	8b-/	.
.	8e-/	.
8AA/	8d/J	.
*	*v	*v
=11	=11
8BB-\L	4d-/
8D-\	.
8G-\	4ccc\
8d-\J	.
8AA/L	4.ddd\
8C/	.
8F#/	.
8c/J	[8ccc\
=12	=12
8GG\L	8ccc\L]
8D\	8ggg\
8Fn\	8eee\
8c\J	8ddd\J
8d\L	2ccc\
8e\	.
8fn\	.
8g\J	.
=13	=13
!!linebreak:original
4a\	8ccc\L
.	16bb\L
.	16ccc\J
4a-\ 4an\	8eee\
.	8ccc\J
4r	8ffn\L
.	16ddd\L
.	16bb\JJ
8r	4ccc\
8a-\	.
=14	=14
8ee-\L	8ccc\L
8dd\	16bb\L
.	16ccc\J
8cc\	8ddd\
8b\J	8gg\J
4b-\	8eee-\L
.	16cc\L
.	16ee\J
4b-\	8aa\
.	8ccc\J
=15	=15
4a\ 4b-\	8r
.	16b\LL
.	16dd\J
4a\ 4b-\	8gg\
.	8bb\J
4a\ 4b-\	8r
.	16a#\LL
.	16cc#\J
4a\ 4b-\	8ff#\
.	8aa#\J
=16	=16
!!linebreak:original
8r	1r
4ff#\	.
4ee\	.
8dd\L	.
8cc\	.
8b-\J	.
=17	=17
2a-\	8r
.	8F#/L
.	8G/
.	8d/J
4g\	8e/L
.	8a/
[4Fn\	8b/
.	8ff#/J
=18	=18
8F\L]	4aa\
8e\	.
8d\	4aa\
8A\J	.
8e-\L	4aa\
8d\	.
8c\	[4aa\
8G\J	.
=19	=19
8d\L	8aa\L]
8c\	8gg\
8B\	8aa\
8Fn\J	8bb-\J
8c\L	4.ccc\
8B\	.
8A\	.
8E\J	8ddd\
=20	=20
!!pagebreak:original
2.E-\	8eee-\L
.	8ee-\
.	8ff#\
.	8ccc\J
.	8eee-\L
.	8ee-\
4En\	8ff#\
.	8ccc\J
=21	=21
4A\	8ccc\L
.	8bb\
4A\	8aa\
.	8ee\J
4A\	8bb\L
.	8aa\
4A\	8gg\
.	8dd\J
=22	=22
8A\L	8aa\L
8c\	8gg\
8G\	8ffn\
8A\J	8cc\J
2G\	8aa\L
.	8gg\
.	8ff#\
.	8cc\J
=23	=23
1Fn	8dd\L
.	16ff#\L
.	16aa\JJ
.	4.eee-\
.	8ddd\L
.	8ccc\
.	8ggg\J
=24	=24
!!linebreak:original
1Fn	8r
.	8bb-\L
.	8ccc\
.	8ggg\J
.	8r
.	8aa\L
.	8ccc#\
.	8ggg\J
=25	=25
8GGG/L	[2dddd\
8DD/	.
8D/	.
8DD/J	.
*clefG2	*
2c/ 2b-/	8dddd\L]
.	8ddd\
.	8eee\
.	8bbb\J
*clefF4	*
=26	=26
8GGG/L	[2dddd\
8DD/	.
8D/	.
8DD/J	.
*clefG2	*
2c/ 2b-/	8dddd\L]
.	8ddd\
.	8eee\
.	8bbb\J
=27	=27
4.ee-\	1ddd 1dddd
24ee-\LL	.
24ee-\	.
24ee-\JJ	.
4.ee-\	.
24ee-\LL	.
24ee-\	.
24ee-\JJ	.
=28	=28
!!linebreak:original
1ee-	8dddd\
.	8r
.	[4e/
.	8e/]
.	24e/LL
.	24e/
.	24e/JJ
.	8e/L
.	8e/J
=29	=29
8ee-\	8e/
*clefF4	*
8r	8r
4r	2.g#\ 2.cc#\ 2.ee\ 2.gg#\
2CCC/ 2CC/ 2G#/ 2c#/ 2e/	.
=30	=30
1CCC 1CC	8r
.	4F#/
.	4G/
.	4A/
.	8B/
=31	=31
8CCC/ 8CC/	4G/
4C/	.
.	4G/
4BB/	.
.	4G/
4AA/	.
.	[4G/
[8GG/	.
=32	=32
8GG/]	8G/L]
4FFn/	8d/
.	8A/
4EE-/	8d/J
.	2G/
4CC#/	.
8BBB/	.
=33	=33
!!linebreak:original
*	*^
2BBB/	8r	8r
.	16dd/LL	16b\LL
.	16ff#/J	16dd\J
.	8eee-/	8ccc\
.	8ddd/J	8bb\J
2AAA/	8r	8r
.	4dd/	4b\
.	8ff#/	8dd\
=34	=34	=34
2AAA-/	4eee-/	4ccc\
.	4ddd/	4bb\
4r	4r	4r
4DD/	4dd/	4c\ 4f#\
*	*v	*v
=35	=35
8r	1DD 1B [1g 1ee
8GG\L	.
8D\	.
8A-\J	.
*clefG2	*
8e-\L	.
8b-\	.
8ff#\	.
8eee-\J	.
=36	=36
*	*^
1dddd	1B 1g]	1ee
*	*v	*v
==	==
*-	*-
